X: 0023
T: Sv\^ole-leken
T: Sval-l\aaten
O: efter Olmorts (Spak) Erik
%R: polska
B: Paul B\"ackstr\"om's "L\aatar fr\aan Dalarna" collection" 1974
Z: 2022 John Chambers <jc:trillian.mit.edu>
M: 3/4
L: 1/16
K: D
%%slurgraces 1
%%graceslurs 1
% - - - - - - - - - -
|:\
{A}a3g f2fa {gf}g3b | a3g f4 {f}a4 | {f}g2eg (3(fgf)(d2 e3)(f |\
g2)((3(fgf) e3)(f g3)(a | b2)gb a3(g f2)a2 |
(3({f}gfg)(b2 a3)(g f2)a2 |{f}g2eg (3(fgf)(d2 e3)(f |\
(3(gag))(e2 c2)Ac [d4D4] :: [A2D2]f2 d2fd A4 | D2(3(fgf) d2fd A4 |
D2f2 g2e2 (g>agf) |\
[1 ([f2A2][f2d2]) (3([f2d2][f2d2][f2d2]) ([e2-d2][e2c2]) | [e3e3]d (B2cB) A4 :|\
[2 f2d2 [f2d2][f2d2] (ece2) | d12 |]
% - - - - - - - - - -
%%text Jmf. K.E.F S\"arna nr 20
%%text Uppt. Ture Gudmundsson
